X:1
T:Title
%%score { 1 | 2 }
L:1/8
M:6/4
K:C
V:1 treble nm="Grand Piano"
V:2 bass 
V:1
 z6 z4[Q:1/4=100] [EG]2 | [FG]3 D E2 F2 [FA]2 [FB]2 | [FA]2 [EG]4- [EG]4 [EG]2 | %3
 [FG]3 D E2 F2 [FB]2 [FA]2 | [EG]6- [EG]4 [EG]2 | [Ec]3 [Ec] [Ec]2 [Ed]2 [Ec]2 [GB]2 | %6
[M:5/4] [GB]2 A2- A6 |[M:1/4] A2 |[M:6/4] G4 c2 B3 c d2 |[M:5/4] [Ec]2- [Ec]2- [Ec]6 | %10
[M:1/4] [EG]2 |[M:6/4] [Ec]4 [CGc]2 [CAc]2 [CGB]2 [CFA]2 |[M:5/4] [CEG]2- [CEG]2- [CEG]6 | %13
[M:1/4] [_B,EG]2 |[M:6/4] [B,FG]3 [G,B,D] [G,DF]2 [FA]4 [B,FG]2 | [G,EG]6- [G,EG]4 [G,EG]2 | %16
 [Ec]2 [Ec]2 [Ec]2 [FB]2 [FB]2 [DF]2 | [FA]2 [FB]2 [FA]2 [EG]4 [EG]2 | [Ec]4 [Gc]2 d3 c [DB]2 | %19
 [Ec]12 |] %20
V:2
 z6 z4 [C,C]2 | [D,B,]3 [F,G,B,] [E,G,C]2 [D,G,D]2 [B,,G,]2 [G,,G,]2 | %2
 [C,G,]2 [C,C]4- [C,C]4 [^C,_B,]2 | [D,B,]3 [F,G,B,] [E,G,C]2 [D,G,D]2 [B,,G,]2 [G,,G,]2 | %4
 [C,G,]6- [C,G,]4 [C,G,]2 | [C,G,]3 [C,G,] [C,G,]2 [C,G,]2 [C,C]2 [E,C]2 | %6
[M:5/4] [F,C]2 [F,CF]2- [F,CF]6 |[M:1/4] [^F,C_E]2 | %8
[M:6/4][K:treble] [G,CE]4 [G,CE]2 [G,DF]3 [G,CF] [G,B,F]2 |[M:5/4][K:bass] [C,C]2- [C,C]2- [C,C]6 | %10
[M:1/4] [C,C]2 |[M:6/4] [C,C]4 E,2 F,2 F,2 F,2 |[M:5/4] C,2- C,2- C,6 |[M:1/4] ^C,2 | %14
[M:6/4] D,3 F, D,2 [B,,G,]4 G,,2 | C,6- C,4 C,2 | %16
 [C,G,]2 [C,G,]2 [C,G,]2 [D,G,]2 [D,G,]2 [B,,G,]2 | [G,,G,]2 [G,,G,]2 [B,,G,]2 [C,G,]4 [C,C]2 | %18
 [C,C]4 [E,C]2 [F,A,F]3 [G,E] [G,,G,]2 | [C,G,]12 |] %20

